www/assets/icons/emergency_share.svg

<svg width="24" height="24" viewBox="0 0 24 24" xmlns="http://www.w3.org/2000/svg" fill='currentColor'><path d="M12 9C8.84997 9 5.99997 11.41 5.99997 15.15C5.99997 17.64 7.99997 20.59 12 24C16 20.59 18 17.64 18 15.15C18 11.41 15.15 9 12 9ZM12 16.5C11.17 16.5 10.5 15.83 10.5 15C10.5 14.17 11.17 13.5 12 13.5C12.83 13.5 13.5 14.17 13.5 15C13.5 15.83 12.83 16.5 12 16.5ZM12 4C13.93 4 15.68 4.78 16.95 6.05L15.54 7.46C14.63 6.56 13.38 6 12 6C10.62 6 9.36997 6.56 8.45997 7.46L7.04997 6.05C8.31997 4.78 10.07 4 12 4ZM19.78 3.23L18.37 4.64C16.74 3.01 14.49 2 12.01 2C9.52997 2 7.26997 3.01 5.63997 4.63L4.21997 3.22C6.21997 1.23 8.96997 0 12.01 0C15.05 0 17.79 1.23 19.78 3.23Z"/></svg>

<svg xmlns="http://www.w3.org/2000/svg" width="24" height="24" viewBox="0 0 24 24" fill='currentColor'><path d="M12 9c-3.15 0-6 2.41-6 6.15q0 3.735 6 8.85 6-5.115 6-8.85C18 11.41 15.15 9 12 9m0 7.5c-.83 0-1.5-.67-1.5-1.5s.67-1.5 1.5-1.5 1.5.67 1.5 1.5-.67 1.5-1.5 1.5M12 4c1.93 0 3.68.78 4.95 2.05l-1.41 1.41a5.02 5.02 0 0 0-7.08 0L7.05 6.05A6.98 6.98 0 0 1 12 4m7.78-.77-1.41 1.41A8.97 8.97 0 0 0 12.01 2C9.53 2 7.27 3.01 5.64 4.63L4.22 3.22C6.22 1.23 8.97 0 12.01 0s5.78 1.23 7.77 3.23"/></svg>
